icon/ir/linkedin.svg

<svg stroke-width="1.5" viewBox="0 0 24 24" fill="none" xmlns="http://www.w3.org/2000/svg" height="1em" width="1em">
  <path d="M21 8V16C21 18.7614 18.7614 21 16 21H8C5.23858 21 3 18.7614 3 16V8C3 5.23858 5.23858 3 8 3H16C18.7614 3 21 5.23858 21 8Z" stroke="currentColor" stroke-linecap="round" stroke-linejoin="round"/>
  <path d="M7 17V13.5V10" stroke="currentColor" stroke-linecap="round" stroke-linejoin="round"/>
  <path d="M11 17V13.75M11 10V13.75M11 13.75C11 10 17 10 17 13.75V17" stroke="currentColor" stroke-linecap="round" stroke-linejoin="round"/>
  <path d="M7 7.01L7.01 6.99889" stroke="currentColor" stroke-linecap="round" stroke-linejoin="round"/>
</svg>

<svg width="24" height="24" stroke-width="1.5" fill="none" xmlns="http://www.w3.org/2000/svg"><path d="M21 8v8a5 5 0 0 1-5 5H8a5 5 0 0 1-5-5V8a5 5 0 0 1 5-5h8a5 5 0 0 1 5 5ZM7 17v-7" stroke="currentColor" stroke-linecap="round" stroke-linejoin="round"/><path d="M11 17v-3.25M11 10v3.75m0 0c0-3.75 6-3.75 6 0V17M7 7.01l.01-.011" stroke="currentColor" stroke-linecap="round" stroke-linejoin="round"/></svg>
